X:1
T:Pineapple Rag
T:Scott Joplin
T:Public Domain
T:Public Domain
T:Public Domain
Z:Public Domain
%%score { ( 1 4 ) | ( 2 3 ) }
L:1/8
Q:1/4=100
M:2/4
K:Bb
V:1 treble nm="Piano"
V:4 treble 
V:2 bass 
V:3 bass 
V:1
!mf!"^Slow March tempo" G/FE/ (D/^C/D/=C/) | (B,/C/D/F/-) F2 | G/G^F/ (G/A/B) | cF- FF |: %4
!mf! [Bdg]/fe/ (d/^c/d/=c/) | (B/c/d/f/-) f/b/[fd'] | [Bdg]/fe/ (d/^c/d/e/) | %7
!<(! [Bdf]([Bf]/d/) ([Bf]/d/!<)![Bf]) |!f! (B/[eb])(B/ [eb])(B/[eb]/-) | %9
 [eb]/(d'/b/d/) (f/=e/f/g/) | (a/[cf])(a/ [B=eg])[Bea]/[Af]/- | [Af](A/B/ c/d/e/f/) | %12
!mf! [Bdg]/fe/ d/^c/d/=c/ | B/c/d/f/- f/b/[fd'] | [Bdg]/fe/ d/^c/d/e/ | %15
 [Bdf]([Bf]/d/) ([Bf]/d/[Bf]) |!f! (B/[eb])(B/ [eb])(B/[eb]/-) | [eb]/(d'/b/f/) (d/f/g/b/) |1 %18
 B2 c/dB/- | [DB](B/c/ d/e/)[Aef] :|2 B2 c/dB/- || [DB](F/=E/ F/^F/)G/^G/ |: %22
!mf! (A/[cea])(G/ [ceg])(A/[cea]/-) | [cea]/(G/[ceg]) [Acea][Gceg] | G/[Bdg]F/ [Bdf]G/[Bdg]/- | %25
 [Bdg]/F/[Bdf] [GBdg][FBdf] | (f/[ac'f'])((e/ [ac'e']))(d/[fad']/-) | %27
 [fad']/(e/[ac'e']) [dfd'][cfc'] | (c/[fc'])B/ [Bfb][GB^cg] | [FBdf](F/=E/ F/^F/G/^G/) | %30
 (A/[cea])(G/ [ceg])(A/[cea]/-) | [cea]/(G/[ceg]) [Acea][Gceg] | (G/[Bdg])(F/ [Bdf])(G/[Bdg]/-) | %33
 [Bdg]/(F/[Bdf])!<(! [GBdg]!<)![FBdf] |!f! (_G/[Be_g])(B/- [Begb])[GBeg] | %35
 (F/[Bdf])(=E/- [EB^c=e])[FBdf] | (e/[ac'])(f/- [fad'])[eac'] |1 [db](F/=E/ F/^F/G/^G/) :|2 %38
 [db](B/c/ d/e/)[Aef] || [Bdg]/fe/ d/^c/d/=c/ | B/c/d/f/ f/b/[fd'] | [Bdg]/fe/ d/^c/d/e/ | %42
!<(! [Bdf][Bf]/d/ [Bf]/d/!<)![Bf] |!f! B/[eb]B/ [eb]B/[db]/- | [db]/d'/b/d/ f/=e/f/g/ | %45
 a/[cf]a/ [B=eg][Bea]/[Af]/- | [Af](A/B/ c/d/e/f/) |!mf! [Bdg]/fe/ (d/^c/d/=c/) | %48
 (B/c/d/f/-) f/b/[fd'] | [Bdg]/fe/ d/^c/d/e/ |!<(! [Bdf]([Bf]/d/ [Bf]/d/!<)![Bf]) | %51
!f! (B/[eb])(B/ [eb])(B/[db]/-) | [db]/(d'/b/f/) (d/f/g/b/) | B2 c/dB/ | B2 B/[_Ac]/[GB]/[FA]/ |: %55
[K:Eb]!mp! [B,EG]/[=A,E^F][B,EG]/- [B,EG]2 | [B,EG]/[=A,E^F][B,EG]/- [B,EG]2 | E/F_G/- G/F/E | %58
 ([B,EG]2 ([FA]/)[Ac]/[GB]/[FA]/) | [B,EG]/[=A,E^F][B,EG]/-!<(! [B,EG][Gce] | %60
 [GBe]/[GBd][GBd]/- [GBd]!<)![dgb] |!mf! b/=aa/- a/b/a | [Bg]2!>(! ([GB]/[_Ac]/[GB]/!>)![FA]/) | %63
!mp! [B,EG]/[=A,E^F][B,EG]/- [B,EG]2 | [B,EG]/[=A,E^F][B,EG]/- [B,EG]2 | E/F_G/- G/F/E | %66
 [B,E=G]2- [B,EG][_DEB] | (B/A)c/- c/=B/c | (c/_B)g/- g/e/G | (G/F)c/- c/B/G |1 %70
 ([G,E]B,/C/ D/E/F/^F/) :|2 [G,E]2- [G,E]/[Dd]/[Ee]/[Ff]/ |: %72
!mf! [_G_ce_g]/[Gceg][Gceg]/- [Gceg]2- | [Gceg]/[_ce]/[_G_g]/c/ e/[Gg][ce]/ | %74
 [=GBe=g]/[GBeg][GBeg]/- [GB-e-g]2 | [GBeg]/[eg]/[Bg]/e/ f<[Geg] | %76
 [ac']/[gb][fa]/- [fa]/[eg]/[df] | [^c=e]/[df][df]/- ([df]/[_eg]/[fa]) | %78
 [=A^f]/[Bg][Bg]/- [Bg]/[Dd]/[Ee]/[=F=f]/ | [_G_ce_g]/[Gceg][Gceg]/- [Gceg]2- | %80
 [Gceg]/[_ce]/[_G_g]/c/ e/[Gg][ce]/ | [=GBe=g]/[GBeg][GBeg]/- [G-B-e-g]2 | %82
 [GBeg]/[eg]/[Bg]/e/ f<[Geg] | [ceg]/[ceg][cef]/- [cef]/e/[cef] | [Beg]/[Beg][Beb]/- [Beb]/e/g | %85
 b/ab/- b/f/g |1 [GBe]2- [GBe]/[Dd]/[Ee]/[Ff]/ :|2 [GBe]2 [egbe'] z |] %88
V:2
 G,/F,E,/ (D,/^C,/D,/=C,/) | (B,,/C,/D,/F,/-) F,2 | G,/G,^F,/ (G,/A,/B,) | CF,- F,F, |: %4
 B,,[F,B,D] F,,[F,B,D] | B,,[F,B,D] F,,[F,B,D] | B,,[F,B,D] F,,[F,B,D] | (B,,D,F,_A,) | %8
 G,[G,B,E] G,[_G,B,E] | [F,,F,][F,B,D] ([E,,E,][_E,,_E,]) | [C,,C,][A,CF] [C,,C,][B,CE] | %11
 [F,,F,](C,A,,F,,) | B,,[F,B,D] F,,[F,B,D] | B,,[F,B,D] F,,[F,B,D] | B,,[F,B,D] F,,[F,B,D] | %15
 (B,,D,F,_A,) | G,[G,B,E] G,[_G,B,E] | [F,,F,][F,B,D] [F,,F,][F,B,D] |1 %18
 ([G,,G,][_G,,_G,]) [G,,G,]2 | [B,,B,] z z [F,,G,] :|2 ([G,,G,][_G,,_G,]) [G,,G,]2 || %21
 [B,,B,] z z [=B,,=B,] |: [C,C][F,A,E] [F,,F,][F,A,E] | [C,C][F,A,E] [F,,F,][F,A,E] | %24
 [B,,B,][F,B,D] [F,,F,][F,B,D] | [B,,B,][F,B,D] [F,,F,][F,B,D] | [B,,B,][F,B,D] [F,,F,][F,B,D] | %27
 [B,,B,][F,B,D] [F,,F,][F,B,D] | [B,,B,][F,B,D] [B,,B,][E,B,^C] | [F,B,D] z z [=B,,=B,] | %30
 [C,C][F,A,E] [F,,F,][F,A,E] | [C,C][F,A,E] [F,,F,][F,A,E] | [C,C][F,B,D] [F,,F,][F,B,D] | %33
 [C,C][F,B,D] [F,,F,][F,B,D] | [E,,E,][_G,B,E] [_G,,G,][E,,E,] | [D,,D,][F,B,D] [^C,,^C,][D,,D,] | %36
 [F,,F,][F,A,E] [F,,F,][F,A,E] |1 [B,,B,] z z [=B,,=B,] :|2 [B,,B,] z z [F,,F,] || %39
 B,,[F,B,D] F,,[F,B,D] | B,,[F,B,D] F,,[F,B,D] | B,,[F,B,D] F,,[F,B,D] | B,,D, F,_A, | %43
 G,[G,B,E] G,[_G,B,E] | [F,,F,][F,B,D] ([E,,E,][_E,,_E,]) | [C,,C,][A,CF] [C,,C,][B,CE] | %46
 [F,,F,](C,A,,F,,) | B,,[F,B,D] F,,[F,B,D] | B,,[F,B,D] F,,[F,B,D] | B,,[F,B,D] F,,[F,B,D] | %50
 (B,,D, F,_A,) | G,[G,B,E] _G,[G,B,E] | [F,,F,][F,B,D] [F,,F,][F,B,D] | [G,,G,][_G,,_G,] [F,,F,]2 | %54
 (B,2 B,2) |:[K:Eb] (E,,C,) (B,,/E,/B,,/G,,/) | (E,,C,) (B,,/E,/B,,/G,,/) | (A,,E,) (A,,E,) | %58
 (E,,/G,,/B,,/E,/ B,2) | (E,,C,) B,,/E,/C, | (D,F,) (B,/G,/D,) | D,[CD] (D,[CD]) | [B,D]2 B,2 | %63
 (E,,C,) (B,,/E,/B,,/G,,/) | (E,,C,) (B,,/E,/B,,/G,,/) | (A,,E,) (A,,E,) | %66
 (E,,/G,,/B,,/E,/) (B,,G,,) | (A,,E,) A,,=A,, | (B,,B,) (B,,B,) | (B,,B,,,) (B,,B,,,) |1 %70
 [E,,B,,E,] z [B,,F,A,]2 :|2 ([E,,B,,E,]G,,B,,E,) |: (_C,_D,E,_G,) | (_C_G,E,_C,) | (B,,E,F,=G,) | %75
 (B,G,E,B,,) | [D,,D,][A,B,D] [B,,,B,,][A,B,D] | [B,,B,][A,B,D] [B,,,B,,][A,B,D] | %78
 [E,,E,][G,B,E] [G,B,] z | (_C,_D,E,_G,) | (_C_G,E,_C,) | (B,,E,F,=G,) | (B,G,E,B,,) | %83
 (A,,C,E,A,) | (B,,E,G,B,) | [F,,F,][A,B,D] [B,,,B,,][A,B,D] |1 ([E,,E,]G,,B,,E,) :|2 %87
 [E,,E,]B,, E,, z |] %88
V:3
 x4 | x4 | x4 | x4 |: x4 | x4 | x4 | x4 | [G,,G,]2 [_G,,_G,]2 | x4 | x4 | x4 | x4 | x4 | x4 | x4 | %16
 [G,,G,]2 [_G,,_G,]2 | x4 |1 x4 | x4 :|2 x4 || x4 |: x4 | x4 | x4 | x4 | x4 | x4 | x4 | x4 | x4 | %31
 x4 | x4 | x4 | x4 | x4 | x4 |1 x4 :|2 x4 || x4 | x4 | x4 | x4 | [G,,G,]2 [_G,,_G,]2 | x4 | x4 | %46
 x4 | x4 | x4 | x4 | x4 | [G,,G,]2 [_G,,_G,]2 | x4 | x4 | B,,F, B,,2 |:[K:Eb] x4 | x4 | A,,2 A,,2 | %58
 E,,2 z2 | x4 | x4 | D,2 D,2 | G,(D,/G,/) x2 | x4 | x4 | A,,2 A,,2 | x4 | A,,2 x2 | B,,2 B,,2 | %69
 x4 |1 x4 :|2 x4 |: x4 | x4 | x4 | x4 | x4 | x4 | x4 | x4 | x4 | x4 | x4 | x4 | x4 | x4 |1 x4 :|2 %87
 x4 |] %88
V:4
 x4 | x4 | x4 | x4 |: x4 | x4 | x4 | x4 | x4 | x2 B2 | x4 | x4 | x4 | x4 | x4 | x4 | x4 | x4 |1 %18
 (=E[_EE]) [EG]>D | x4 :|2 (=E[_EE]) [EG]>D || x4 |: x4 | x4 | x4 | x4 | x4 | x4 | x4 | x4 | x4 | %31
 x4 | x4 | x4 | x4 | x4 | x4 |1 x4 :|2 x4 || x4 | x4 | x4 | x4 | x4 | x4 | x4 | x4 | x4 | x4 | x4 | %50
 x4 | x4 | x4 | =E_E [EA]>D | x4 |:[K:Eb] x4 | x4 | [CE]>[CE]- [CE]2 | x2 D2 | x4 | x4 | %61
 [c^f]>[cf]- [cf][cf] | x2 D2 | x4 | x4 | [CE]>[CE]- [CE]2 | x4 | [CE]>[EA]- [EA][E^F] | %68
 [EG]>[Be]- [Be]E | [A,D]>[DA]- [DA][A,D] |1 x4 :|2 x4 |: x4 | x4 | x4 | x4 | x4 | x4 | x4 | x4 | %80
 x4 | x4 | x4 | x2 cc | x2 B[Be] | [Bd]>[Ad]- [Ad][Ad] |1 x4 :|2 x4 |] %88

